X: 2021
T: Minuet.
%R: minuet
B: Henry Playford "Apollo's Banquet", London 1687 (5th Edition)
F: https://archive.org/details/apollosbanquetco01rugg
Z: 2017 John Chambers <jc:trillian.mit.edu>
M: 3/2
L: 1/8
K: C
% - - - - - - - - - -
|:\
g6 a2e2f2 | g2f4 edefef |\
g6 a2e2f2 | g2f4 e6 ::\
c2d2e2 f6 | e2f2c2 dcBAG2 |\
c2d2e2 f6 | e2a2d2 c6 |]
% - - - - - - - - - -

%%sep 1 1 500
%%sep 1 1 500

